docs/img/icon1/service-corporate-portal_mobile.svg

<svg width="150" height="196" viewBox="0 0 150 196" fill="none" xmlns="http://www.w3.org/2000/svg">
<path d="M68.8798 195.327H19.6829C12.7589 195.327 7.83925 193.765 4.92387 190.639C1.64409 187.861 0.00418091 183.173 0.00418091 176.576V155.741C0.00418091 149.143 1.64409 144.281 4.92387 141.156C7.83925 138.378 12.7589 136.989 19.6829 136.989H64.5067C69.2442 136.989 72.8884 135.6 75.4394 132.822C77.9903 130.392 79.2658 126.919 79.2658 122.405V114.592H19.6829C12.7589 114.592 7.83925 113.029 4.92387 109.904C1.64409 107.126 0.00419617 102.438 0.00419617 95.8402V18.7508C0.00419617 12.1531 1.64409 7.2916 4.92387 4.16635C7.83925 1.38837 12.7589 -0.000640869 19.6829 -0.000640869H130.103C137.027 -0.000640869 142.128 1.38837 145.408 4.16635C148.324 7.2916 149.781 12.1531 149.781 18.7508V116.675C149.781 143.066 142.493 162.686 127.916 175.534C112.975 188.729 93.296 195.327 68.8798 195.327Z" fill="#FF7D04"/>
<path d="M31.5352 54.1318H29.4727L26.3672 49.79V54.1318H24.5508V45.5654H26.3672V49.7139L29.4375 45.5654H31.3711L28.248 49.6787L31.5352 54.1318ZM38.4258 50.8447C38.4258 51.3916 38.3516 51.876 38.2031 52.2979C38.0586 52.7197 37.8457 53.0771 37.5645 53.3701C37.2871 53.6592 36.9512 53.8779 36.5566 54.0264C36.166 54.1748 35.7246 54.249 35.2324 54.249C34.7715 54.249 34.3477 54.1748 33.9609 54.0264C33.5781 53.8779 33.2441 53.6592 32.959 53.3701C32.6777 53.0771 32.459 52.7197 32.3027 52.2979C32.1504 51.876 32.0742 51.3916 32.0742 50.8447C32.0742 50.1182 32.2031 49.5029 32.4609 48.999C32.7188 48.4951 33.0859 48.1123 33.5625 47.8506C34.0391 47.5889 34.6074 47.458 35.2676 47.458C35.8809 47.458 36.4238 47.5889 36.8965 47.8506C37.373 48.1123 37.7461 48.4951 38.0156 48.999C38.2891 49.5029 38.4258 50.1182 38.4258 50.8447ZM33.8965 50.8447C33.8965 51.2744 33.9434 51.6357 34.0371 51.9287C34.1309 52.2217 34.2773 52.4424 34.4766 52.5908C34.6758 52.7393 34.9355 52.8135 35.2559 52.8135C35.5723 52.8135 35.8281 52.7393 36.0234 52.5908C36.2227 52.4424 36.3672 52.2217 36.457 51.9287C36.5508 51.6357 36.5977 51.2744 36.5977 50.8447C36.5977 50.4111 36.5508 50.0518 36.457 49.7666C36.3672 49.4775 36.2227 49.2607 36.0234 49.1162C35.8242 48.9717 35.5645 48.8994 35.2441 48.8994C34.7715 48.8994 34.4277 49.0615 34.2129 49.3857C34.002 49.71 33.8965 50.1963 33.8965 50.8447ZM43.5469 47.458C44.2852 47.458 44.8809 47.7451 45.334 48.3193C45.791 48.8936 46.0195 49.7354 46.0195 50.8447C46.0195 51.5869 45.9121 52.2119 45.6973 52.7197C45.4824 53.2236 45.1855 53.6045 44.8066 53.8623C44.4277 54.1201 43.9922 54.249 43.5 54.249C43.1836 54.249 42.9121 54.21 42.6855 54.1318C42.459 54.0498 42.2656 53.9463 42.1055 53.8213C41.9453 53.6924 41.8066 53.5557 41.6895 53.4111H41.5957C41.627 53.5674 41.6504 53.7275 41.666 53.8916C41.6816 54.0557 41.6895 54.2158 41.6895 54.3721V57.0146H39.9023V47.5811H41.3555L41.6074 48.4307H41.6895C41.8066 48.2549 41.9492 48.0928 42.1172 47.9443C42.2852 47.7959 42.4863 47.6787 42.7207 47.5928C42.959 47.5029 43.2344 47.458 43.5469 47.458ZM42.9727 48.8877C42.6602 48.8877 42.4121 48.9521 42.2285 49.0811C42.0449 49.21 41.9102 49.4033 41.8242 49.6611C41.7422 49.9189 41.6973 50.2451 41.6895 50.6396V50.833C41.6895 51.2549 41.7285 51.6123 41.8066 51.9053C41.8887 52.1982 42.0234 52.4209 42.2109 52.5732C42.4023 52.7256 42.6641 52.8018 42.9961 52.8018C43.2695 52.8018 43.4941 52.7256 43.6699 52.5732C43.8457 52.4209 43.9766 52.1982 44.0625 51.9053C44.1523 51.6084 44.1973 51.2471 44.1973 50.8213C44.1973 50.1807 44.0977 49.6982 43.8984 49.374C43.6992 49.0498 43.3906 48.8877 42.9727 48.8877ZM53.4492 47.5811V54.1318H51.6562V48.9229H49.2832V54.1318H47.4961V47.5811H53.4492ZM61.2773 50.8447C61.2773 51.3916 61.2031 51.876 61.0547 52.2979C60.9102 52.7197 60.6973 53.0771 60.416 53.3701C60.1387 53.6592 59.8027 53.8779 59.4082 54.0264C59.0176 54.1748 58.5762 54.249 58.084 54.249C57.623 54.249 57.1992 54.1748 56.8125 54.0264C56.4297 53.8779 56.0957 53.6592 55.8105 53.3701C55.5293 53.0771 55.3105 52.7197 55.1543 52.2979C55.002 51.876 54.9258 51.3916 54.9258 50.8447C54.9258 50.1182 55.0547 49.5029 55.3125 48.999C55.5703 48.4951 55.9375 48.1123 56.4141 47.8506C56.8906 47.5889 57.459 47.458 58.1191 47.458C58.7324 47.458 59.2754 47.5889 59.748 47.8506C60.2246 48.1123 60.5977 48.4951 60.8672 48.999C61.1406 49.5029 61.2773 50.1182 61.2773 50.8447ZM56.748 50.8447C56.748 51.2744 56.7949 51.6357 56.8887 51.9287C56.9824 52.2217 57.1289 52.4424 57.3281 52.5908C57.5273 52.7393 57.7871 52.8135 58.1074 52.8135C58.4238 52.8135 58.6797 52.7393 58.875 52.5908C59.0742 52.4424 59.2188 52.2217 59.3086 51.9287C59.4023 51.6357 59.4492 51.2744 59.4492 50.8447C59.4492 50.4111 59.4023 50.0518 59.3086 49.7666C59.2188 49.4775 59.0742 49.2607 58.875 49.1162C58.6758 48.9717 58.416 48.8994 58.0957 48.8994C57.623 48.8994 57.2793 49.0615 57.0645 49.3857C56.8535 49.71 56.748 50.1963 56.748 50.8447ZM66.3984 47.458C67.1367 47.458 67.7324 47.7451 68.1855 48.3193C68.6426 48.8936 68.8711 49.7354 68.8711 50.8447C68.8711 51.5869 68.7637 52.2119 68.5488 52.7197C68.334 53.2236 68.0371 53.6045 67.6582 53.8623C67.2793 54.1201 66.8438 54.249 66.3516 54.249C66.0352 54.249 65.7637 54.21 65.5371 54.1318C65.3105 54.0498 65.1172 53.9463 64.957 53.8213C64.7969 53.6924 64.6582 53.5557 64.541 53.4111H64.4473C64.4785 53.5674 64.502 53.7275 64.5176 53.8916C64.5332 54.0557 64.541 54.2158 64.541 54.3721V57.0146H62.7539V47.5811H64.207L64.459 48.4307H64.541C64.6582 48.2549 64.8008 48.0928 64.9688 47.9443C65.1367 47.7959 65.3379 47.6787 65.5723 47.5928C65.8105 47.5029 66.0859 47.458 66.3984 47.458ZM65.8242 48.8877C65.5117 48.8877 65.2637 48.9521 65.0801 49.0811C64.8965 49.21 64.7617 49.4033 64.6758 49.6611C64.5938 49.9189 64.5488 50.2451 64.541 50.6396V50.833C64.541 51.2549 64.5801 51.6123 64.6582 51.9053C64.7402 52.1982 64.875 52.4209 65.0625 52.5732C65.2539 52.7256 65.5156 52.8018 65.8477 52.8018C66.1211 52.8018 66.3457 52.7256 66.5215 52.5732C66.6973 52.4209 66.8281 52.1982 66.9141 51.9053C67.0039 51.6084 67.0488 51.2471 67.0488 50.8213C67.0488 50.1807 66.9492 49.6982 66.75 49.374C66.5508 49.0498 66.2422 48.8877 65.8242 48.8877ZM73.0312 47.4463C73.9102 47.4463 74.584 47.6377 75.0527 48.0205C75.5215 48.4033 75.7559 48.9854 75.7559 49.7666V54.1318H74.5078L74.1621 53.2412H74.1152C73.9277 53.4756 73.7363 53.667 73.541 53.8154C73.3457 53.9639 73.1211 54.0732 72.8672 54.1436C72.6133 54.2139 72.3047 54.249 71.9414 54.249C71.5547 54.249 71.207 54.1748 70.8984 54.0264C70.5938 53.8779 70.3535 53.6514 70.1777 53.3467C70.002 53.0381 69.9141 52.6475 69.9141 52.1748C69.9141 51.4795 70.1582 50.9678 70.6465 50.6396C71.1348 50.3076 71.8672 50.124 72.8438 50.0889L73.9805 50.0537V49.7666C73.9805 49.4229 73.8906 49.1709 73.7109 49.0107C73.5312 48.8506 73.2812 48.7705 72.9609 48.7705C72.6445 48.7705 72.334 48.8154 72.0293 48.9053C71.7246 48.9951 71.4199 49.1084 71.1152 49.2451L70.5234 48.0381C70.8711 47.8545 71.2598 47.71 71.6895 47.6045C72.123 47.499 72.5703 47.4463 73.0312 47.4463ZM73.9805 51.0967L73.2891 51.1201C72.7109 51.1357 72.3086 51.2393 72.082 51.4307C71.8594 51.6221 71.748 51.874 71.748 52.1865C71.748 52.46 71.8281 52.6553 71.9883 52.7725C72.1484 52.8857 72.3574 52.9424 72.6152 52.9424C72.998 52.9424 73.3203 52.8291 73.582 52.6025C73.8477 52.376 73.9805 52.0537 73.9805 51.6357V51.0967ZM83.0215 48.9229H80.877V54.1318H79.0898V48.9229H76.9395V47.5811H83.0215V48.9229ZM85.9746 47.5811V50.1709C85.9746 50.3037 85.9688 50.4717 85.957 50.6748C85.9492 50.874 85.9375 51.0771 85.9219 51.2842C85.9062 51.4912 85.8906 51.6768 85.875 51.8408C85.8594 52.0049 85.8477 52.1162 85.8398 52.1748L88.8633 47.5811H91.0137V54.1318H89.2852V51.5186C89.2852 51.3037 89.293 51.0674 89.3086 50.8096C89.3242 50.5479 89.3418 50.3018 89.3613 50.0713C89.3809 49.8408 89.3945 49.667 89.4023 49.5498L86.3906 54.1318H84.2461V47.5811H85.9746ZM98.7012 49.2979C98.7012 49.6494 98.5898 49.9502 98.3672 50.2002C98.1484 50.4463 97.8242 50.6045 97.3945 50.6748V50.7217C97.8477 50.7764 98.2129 50.9346 98.4902 51.1963C98.7676 51.4541 98.9062 51.7803 98.9062 52.1748C98.9062 52.5498 98.8086 52.8857 98.6133 53.1826C98.418 53.4756 98.1074 53.708 97.6816 53.8799C97.2559 54.0479 96.6992 54.1318 96.0117 54.1318H92.8945V47.5811H96.0117C96.5234 47.5811 96.9824 47.6357 97.3887 47.7451C97.7949 47.8506 98.1152 48.0283 98.3496 48.2783C98.584 48.5283 98.7012 48.8682 98.7012 49.2979ZM97.0547 52.0811C97.0547 51.8232 96.9531 51.6377 96.75 51.5244C96.5508 51.4072 96.2539 51.3486 95.8594 51.3486H94.6816V52.8955H95.8945C96.2305 52.8955 96.5078 52.833 96.7266 52.708C96.9453 52.583 97.0547 52.374 97.0547 52.0811ZM96.8906 49.4385C96.8906 49.2354 96.8105 49.085 96.6504 48.9873C96.4902 48.8896 96.2539 48.8408 95.9414 48.8408H94.6816V50.1357H95.7363C96.1152 50.1357 96.4023 50.0811 96.5977 49.9717C96.793 49.8623 96.8906 49.6846 96.8906 49.4385ZM102.229 47.5811V50.1006H104.725V47.5811H106.512V54.1318H104.725V51.4307H102.229V54.1318H100.441V47.5811H102.229ZM108.387 54.1318V47.5811H110.174V50.1123H111.035C111.703 50.1123 112.254 50.1826 112.688 50.3232C113.125 50.4639 113.449 50.6787 113.66 50.9678C113.871 51.2529 113.977 51.6123 113.977 52.0459C113.977 52.4678 113.879 52.835 113.684 53.1475C113.488 53.46 113.18 53.7021 112.758 53.874C112.336 54.0459 111.783 54.1318 111.1 54.1318H108.387ZM110.174 52.8955H111C111.348 52.8955 111.633 52.833 111.855 52.708C112.078 52.5791 112.189 52.3662 112.189 52.0693C112.189 51.8154 112.088 51.6318 111.885 51.5186C111.682 51.4053 111.379 51.3486 110.977 51.3486H110.174V52.8955ZM114.926 54.1318V47.5811H116.713V54.1318H114.926ZM120.322 47.5811V50.1709C120.322 50.3037 120.316 50.4717 120.305 50.6748C120.297 50.874 120.285 51.0771 120.27 51.2842C120.254 51.4912 120.238 51.6768 120.223 51.8408C120.207 52.0049 120.195 52.1162 120.188 52.1748L123.211 47.5811H125.361V54.1318H123.633V51.5186C123.633 51.3037 123.641 51.0674 123.656 50.8096C123.672 50.5479 123.689 50.3018 123.709 50.0713C123.729 49.8408 123.742 49.667 123.75 49.5498L120.738 54.1318H118.594V47.5811H120.322ZM124.869 44.7627C124.826 45.1768 124.709 45.542 124.518 45.8584C124.326 46.1748 124.027 46.4209 123.621 46.5967C123.215 46.7725 122.668 46.8604 121.98 46.8604C121.273 46.8604 120.723 46.7764 120.328 46.6084C119.934 46.4365 119.652 46.1943 119.484 45.8818C119.316 45.5654 119.215 45.1924 119.18 44.7627H120.779C120.814 45.2041 120.926 45.4971 121.113 45.6416C121.301 45.7822 121.602 45.8525 122.016 45.8525C122.359 45.8525 122.641 45.7744 122.859 45.6182C123.078 45.4619 123.209 45.1768 123.252 44.7627H124.869ZM59.5312 63.5811V70.1318H57.7383V64.9229H55.3652V70.1318H53.5781V63.5811H59.5312ZM67.3594 66.8447C67.3594 67.3916 67.2852 67.876 67.1367 68.2979C66.9922 68.7197 66.7793 69.0771 66.498 69.3701C66.2207 69.6592 65.8848 69.8779 65.4902 70.0264C65.0996 70.1748 64.6582 70.249 64.166 70.249C63.7051 70.249 63.2812 70.1748 62.8945 70.0264C62.5117 69.8779 62.1777 69.6592 61.8926 69.3701C61.6113 69.0771 61.3926 68.7197 61.2363 68.2979C61.084 67.876 61.0078 67.3916 61.0078 66.8447C61.0078 66.1182 61.1367 65.5029 61.3945 64.999C61.6523 64.4951 62.0195 64.1123 62.4961 63.8506C62.9727 63.5889 63.541 63.458 64.2012 63.458C64.8145 63.458 65.3574 63.5889 65.8301 63.8506C66.3066 64.1123 66.6797 64.4951 66.9492 64.999C67.2227 65.5029 67.3594 66.1182 67.3594 66.8447ZM62.8301 66.8447C62.8301 67.2744 62.877 67.6357 62.9707 67.9287C63.0645 68.2217 63.2109 68.4424 63.4102 68.5908C63.6094 68.7393 63.8691 68.8135 64.1895 68.8135C64.5059 68.8135 64.7617 68.7393 64.957 68.5908C65.1562 68.4424 65.3008 68.2217 65.3906 67.9287C65.4844 67.6357 65.5312 67.2744 65.5312 66.8447C65.5312 66.4111 65.4844 66.0518 65.3906 65.7666C65.3008 65.4775 65.1562 65.2607 64.957 65.1162C64.7578 64.9717 64.498 64.8994 64.1777 64.8994C63.7051 64.8994 63.3613 65.0615 63.1465 65.3857C62.9355 65.71 62.8301 66.1963 62.8301 66.8447ZM72.4805 63.458C73.2188 63.458 73.8145 63.7451 74.2676 64.3193C74.7246 64.8936 74.9531 65.7354 74.9531 66.8447C74.9531 67.5869 74.8457 68.2119 74.6309 68.7197C74.416 69.2236 74.1191 69.6045 73.7402 69.8623C73.3613 70.1201 72.9258 70.249 72.4336 70.249C72.1172 70.249 71.8457 70.21 71.6191 70.1318C71.3926 70.0498 71.1992 69.9463 71.0391 69.8213C70.8789 69.6924 70.7402 69.5557 70.623 69.4111H70.5293C70.5605 69.5674 70.584 69.7275 70.5996 69.8916C70.6152 70.0557 70.623 70.2158 70.623 70.3721V73.0146H68.8359V63.5811H70.2891L70.541 64.4307H70.623C70.7402 64.2549 70.8828 64.0928 71.0508 63.9443C71.2188 63.7959 71.4199 63.6787 71.6543 63.5928C71.8926 63.5029 72.168 63.458 72.4805 63.458ZM71.9062 64.8877C71.5938 64.8877 71.3457 64.9521 71.1621 65.0811C70.9785 65.21 70.8438 65.4033 70.7578 65.6611C70.6758 65.9189 70.6309 66.2451 70.623 66.6396V66.833C70.623 67.2549 70.6621 67.6123 70.7402 67.9053C70.8223 68.1982 70.957 68.4209 71.1445 68.5732C71.3359 68.7256 71.5977 68.8018 71.9297 68.8018C72.2031 68.8018 72.4277 68.7256 72.6035 68.5732C72.7793 68.4209 72.9102 68.1982 72.9961 67.9053C73.0859 67.6084 73.1309 67.2471 73.1309 66.8213C73.1309 66.1807 73.0312 65.6982 72.832 65.374C72.6328 65.0498 72.3242 64.8877 71.9062 64.8877ZM81.8496 64.9229H79.7051V70.1318H77.918V64.9229H75.7676V63.5811H81.8496V64.9229ZM85.7578 63.4463C86.6367 63.4463 87.3105 63.6377 87.7793 64.0205C88.248 64.4033 88.4824 64.9854 88.4824 65.7666V70.1318H87.2344L86.8887 69.2412H86.8418C86.6543 69.4756 86.4629 69.667 86.2676 69.8154C86.0723 69.9639 85.8477 70.0732 85.5938 70.1436C85.3398 70.2139 85.0312 70.249 84.668 70.249C84.2812 70.249 83.9336 70.1748 83.625 70.0264C83.3203 69.8779 83.0801 69.6514 82.9043 69.3467C82.7285 69.0381 82.6406 68.6475 82.6406 68.1748C82.6406 67.4795 82.8848 66.9678 83.373 66.6396C83.8613 66.3076 84.5938 66.124 85.5703 66.0889L86.707 66.0537V65.7666C86.707 65.4229 86.6172 65.1709 86.4375 65.0107C86.2578 64.8506 86.0078 64.7705 85.6875 64.7705C85.3711 64.7705 85.0605 64.8154 84.7559 64.9053C84.4512 64.9951 84.1465 65.1084 83.8418 65.2451L83.25 64.0381C83.5977 63.8545 83.9863 63.71 84.416 63.6045C84.8496 63.499 85.2969 63.4463 85.7578 63.4463ZM86.707 67.0967L86.0156 67.1201C85.4375 67.1357 85.0352 67.2393 84.8086 67.4307C84.5859 67.6221 84.4746 67.874 84.4746 68.1865C84.4746 68.46 84.5547 68.6553 84.7148 68.7725C84.875 68.8857 85.084 68.9424 85.3418 68.9424C85.7246 68.9424 86.0469 68.8291 86.3086 68.6025C86.5742 68.376 86.707 68.0537 86.707 67.6357V67.0967ZM96.1934 70.1318H94.4062V64.9229H92.7598C92.6777 65.8838 92.5801 66.7021 92.4668 67.3779C92.3535 68.0537 92.209 68.6045 92.0332 69.0303C91.8574 69.4521 91.6387 69.7607 91.377 69.9561C91.1152 70.1514 90.793 70.249 90.4102 70.249C90.1992 70.249 90.0098 70.2334 89.8418 70.2021C89.6777 70.1709 89.5273 70.124 89.3906 70.0615V68.6318C89.4766 68.667 89.5684 68.6963 89.666 68.7197C89.7637 68.7393 89.8633 68.749 89.9648 68.749C90.0781 68.749 90.1855 68.7041 90.2871 68.6143C90.3887 68.5244 90.4844 68.3701 90.5742 68.1514C90.6641 67.9287 90.748 67.6221 90.8262 67.2314C90.9082 66.8408 90.9824 66.3467 91.0488 65.749C91.1152 65.1514 91.1777 64.4287 91.2363 63.5811H96.1934V70.1318Z" fill="#F5F6FF"/>
</svg>

<svg width="150" height="196" fill="none" xmlns="http://www.w3.org/2000/svg"><path d="M68.88 195.327H19.683c-6.924 0-11.844-1.562-14.76-4.688-3.279-2.778-4.919-7.466-4.919-14.063v-20.835c0-6.598 1.64-11.46 4.92-14.585 2.915-2.778 7.835-4.167 14.759-4.167h44.824c4.737 0 8.381-1.389 10.932-4.167 2.551-2.43 3.827-5.903 3.827-10.417v-7.813H19.683c-6.924 0-11.844-1.563-14.76-4.688C1.645 107.126.005 102.438.005 95.84V18.75c0-6.597 1.64-11.458 4.92-14.584C7.839 1.388 12.759 0 19.683 0h110.42c6.924 0 12.025 1.39 15.305 4.167 2.916 3.126 4.373 7.987 4.373 14.585v97.924c0 26.391-7.288 46.011-21.865 58.859-14.941 13.195-34.62 19.793-59.036 19.793z" fill="#FF7D04"/><path d="M31.535 54.132h-2.062l-3.106-4.342v4.342h-1.816v-8.567h1.816v4.149l3.07-4.149h1.934l-3.123 4.114 3.287 4.453zm6.89-3.287c0 .547-.073 1.031-.222 1.453-.144.422-.357.78-.639 1.072-.277.29-.613.508-1.007.656a3.697 3.697 0 01-1.325.223 3.51 3.51 0 01-1.271-.223 2.826 2.826 0 01-1.002-.656 3.06 3.06 0 01-.656-1.072c-.153-.422-.229-.906-.229-1.453 0-.727.13-1.342.387-1.846a2.654 2.654 0 011.102-1.148c.476-.262 1.044-.393 1.705-.393.613 0 1.156.13 1.629.393.476.261.85.644 1.119 1.148.273.504.41 1.12.41 1.846zm-4.528 0c0 .43.046.79.14 1.084.094.293.24.513.44.662.199.148.459.222.779.222.316 0 .572-.074.767-.222.2-.149.344-.37.434-.662.094-.293.14-.655.14-1.084 0-.434-.046-.793-.14-1.078-.09-.29-.234-.506-.434-.65-.199-.145-.459-.218-.779-.218-.472 0-.816.163-1.031.487-.211.324-.316.81-.316 1.459zm9.65-3.387c.738 0 1.334.287 1.787.861.457.575.685 1.416.685 2.526 0 .742-.107 1.367-.322 1.875-.215.504-.512.885-.89 1.142a2.267 2.267 0 01-1.307.387 2.52 2.52 0 01-.815-.117 2.092 2.092 0 01-.58-.31 2.751 2.751 0 01-.415-.41h-.094a5.077 5.077 0 01.094.961v2.642h-1.788V47.58h1.453l.252.85h.083c.117-.176.26-.338.427-.487a1.89 1.89 0 01.604-.351c.238-.09.513-.135.826-.135zm-.574 1.43c-.313 0-.56.064-.745.193-.183.129-.318.322-.404.58-.082.258-.127.584-.134.979v.193c0 .422.038.78.117 1.072.082.293.216.516.404.668.191.153.453.229.785.229.273 0 .498-.076.674-.229.176-.152.307-.375.392-.668.09-.297.135-.658.135-1.084 0-.64-.1-1.123-.299-1.447-.199-.324-.507-.486-.925-.486zm10.476-1.307v6.55h-1.793v-5.208h-2.373v5.209h-1.787v-6.55h5.953zm7.828 3.264a4.38 4.38 0 01-.222 1.453c-.145.422-.358.78-.639 1.072-.277.29-.613.508-1.008.656-.39.149-.832.223-1.324.223a3.52 3.52 0 01-1.272-.223 2.827 2.827 0 01-1.002-.656 3.06 3.06 0 01-.656-1.072c-.152-.422-.228-.906-.228-1.453 0-.727.129-1.342.386-1.846a2.654 2.654 0 011.102-1.148c.477-.262 1.045-.393 1.705-.393.613 0 1.156.13 1.629.393.477.261.85.644 1.12 1.148.273.504.41 1.12.41 1.846zm-4.529 0c0 .43.047.79.14 1.084.094.293.24.513.44.662.2.148.46.222.78.222.316 0 .572-.074.767-.222.2-.149.344-.37.434-.662.093-.293.14-.655.14-1.084 0-.434-.047-.793-.14-1.078-.09-.29-.235-.506-.434-.65-.2-.145-.459-.218-.78-.218-.472 0-.816.163-1.03.487-.212.324-.317.81-.317 1.459zm9.65-3.387c.739 0 1.334.287 1.788.861.457.575.685 1.416.685 2.526 0 .742-.107 1.367-.322 1.875-.215.504-.512.885-.89 1.142a2.267 2.267 0 01-1.307.387c-.317 0-.588-.039-.815-.117a2.093 2.093 0 01-.58-.31 2.76 2.76 0 01-.416-.41h-.094a5.076 5.076 0 01.094.961v2.642h-1.787V47.58h1.453l.252.85h.082a2.5 2.5 0 01.428-.487c.168-.148.369-.265.603-.351.239-.09.514-.135.826-.135zm-.574 1.43c-.312 0-.56.064-.744.193-.183.129-.318.322-.404.58-.082.258-.127.584-.135.979v.193c0 .422.04.78.117 1.072.082.293.217.516.404.668.192.153.454.229.786.229.273 0 .498-.076.674-.229.175-.152.306-.375.392-.668.09-.297.135-.658.135-1.084 0-.64-.1-1.123-.299-1.447-.2-.324-.508-.486-.926-.486zm7.207-1.442c.88 0 1.553.192 2.022.575.469.382.703.964.703 1.746v4.365h-1.248l-.346-.89h-.047a3.318 3.318 0 01-.574.573 1.97 1.97 0 01-.674.329c-.254.07-.562.105-.926.105-.386 0-.734-.074-1.043-.223a1.657 1.657 0 01-.72-.68c-.176-.308-.264-.698-.264-1.171 0-.695.244-1.207.733-1.535.488-.332 1.22-.516 2.197-.551l1.137-.035v-.287c0-.344-.09-.596-.27-.756-.18-.16-.43-.24-.75-.24-.317 0-.627.044-.932.134-.304.09-.61.203-.914.34l-.592-1.207a5.084 5.084 0 011.166-.433 5.634 5.634 0 011.342-.159zm.95 3.65l-.692.024c-.578.016-.98.12-1.207.31a.948.948 0 00-.334.757c0 .273.08.468.24.586.16.113.37.17.627.17.383 0 .705-.114.967-.34.266-.227.399-.55.399-.967v-.54zm9.04-2.173h-2.144v5.209H79.09v-5.21h-2.15v-1.34h6.082v1.34zm2.954-1.342v2.59c0 .133-.006.3-.018.504-.008.199-.02.402-.035.61a29.526 29.526 0 01-.082.89l3.023-4.594h2.15v6.55h-1.728V51.52c0-.215.008-.452.024-.71.015-.261.033-.507.052-.738.02-.23.033-.404.041-.521l-3.011 4.582h-2.145v-6.55h1.729zM98.7 49.298c0 .351-.111.652-.334.902-.219.246-.543.404-.973.475v.047c.454.054.819.213 1.096.474.278.258.416.584.416.979 0 .375-.097.71-.293 1.008-.195.293-.506.525-.931.697-.426.168-.983.252-1.67.252h-3.118v-6.55h3.118c.511 0 .97.054 1.377.163.406.106.726.283.96.533.235.25.352.59.352 1.02zm-1.646 2.783c0-.258-.102-.443-.305-.557-.2-.117-.496-.175-.89-.175h-1.178v1.547h1.212c.337 0 .614-.063.833-.188.218-.125.328-.334.328-.627zm-.164-2.643a.492.492 0 00-.24-.45c-.16-.098-.397-.147-.71-.147h-1.26v1.295h1.055c.38 0 .666-.055.862-.164.195-.11.293-.287.293-.534zm5.338-1.857v2.52h2.496v-2.52h1.787v6.55h-1.787v-2.7h-2.496v2.7h-1.788v-6.55h1.788zm6.158 6.55v-6.55h1.787v2.531h.861c.668 0 1.219.07 1.653.211.437.14.761.356.972.645.211.285.317.644.317 1.078 0 .422-.098.789-.293 1.102-.196.312-.504.554-.926.726-.422.172-.975.258-1.658.258h-2.713zm1.787-1.236H111c.348 0 .633-.062.855-.187.223-.129.334-.342.334-.639 0-.254-.101-.437-.304-.55-.203-.114-.506-.17-.908-.17h-.803v1.547zm4.752 1.237v-6.55h1.787v6.55h-1.787zm5.396-6.55v2.589c0 .133-.006.3-.017.504a19.003 19.003 0 01-.082 1.166c-.016.164-.028.275-.035.334l3.023-4.594h2.15v6.55h-1.728V51.52c0-.215.008-.452.023-.71.016-.261.033-.507.053-.738.02-.23.033-.404.041-.521l-3.012 4.582h-2.144v-6.55h1.728zm4.547-2.82a2.61 2.61 0 01-.351 1.096c-.192.317-.491.563-.897.739-.406.175-.953.263-1.641.263-.707 0-1.257-.084-1.652-.252-.394-.171-.676-.414-.844-.726a2.86 2.86 0 01-.304-1.12h1.599c.035.442.147.735.334.88.188.14.489.21.903.21.343 0 .625-.078.843-.234.219-.156.35-.441.393-.855h1.617zM59.53 63.582v6.55h-1.793v-5.21h-2.373v5.21h-1.787v-6.55h5.953zm7.828 3.263a4.38 4.38 0 01-.222 1.453c-.145.422-.358.78-.639 1.072-.277.29-.613.508-1.008.656-.39.149-.832.223-1.324.223-.46 0-.885-.074-1.271-.223a2.826 2.826 0 01-1.002-.656 3.06 3.06 0 01-.657-1.072c-.152-.422-.228-.906-.228-1.453 0-.727.129-1.342.386-1.846a2.654 2.654 0 011.102-1.148c.477-.262 1.045-.393 1.705-.393.614 0 1.156.13 1.63.393.476.261.849.644 1.118 1.148.274.504.41 1.12.41 1.846zm-4.529 0c0 .43.047.79.14 1.084.095.293.24.513.44.662.2.148.46.223.78.223.316 0 .572-.075.767-.223.2-.149.344-.37.434-.662.093-.293.14-.655.14-1.084 0-.434-.047-.793-.14-1.078-.09-.29-.235-.506-.434-.65-.2-.145-.459-.218-.78-.218-.472 0-.816.162-1.03.487-.212.324-.317.81-.317 1.459zm9.65-3.387c.739 0 1.334.287 1.788.861.457.575.685 1.416.685 2.526 0 .742-.107 1.367-.322 1.875-.215.504-.512.885-.89 1.142a2.267 2.267 0 01-1.307.387c-.317 0-.588-.039-.815-.117a2.092 2.092 0 01-.58-.31 2.757 2.757 0 01-.416-.41h-.094a5.076 5.076 0 01.094.961v2.642h-1.787V63.58h1.453l.252.85h.082a2.5 2.5 0 01.428-.487c.168-.148.369-.265.603-.351.239-.09.514-.135.827-.135zm-.574 1.43c-.312 0-.56.064-.744.193-.184.129-.318.322-.404.58-.082.258-.127.584-.135.979v.193c0 .422.04.78.117 1.072.082.293.217.516.404.668.192.153.454.229.786.229.273 0 .498-.076.673-.229.176-.152.307-.375.393-.668.09-.297.135-.658.135-1.084 0-.64-.1-1.123-.299-1.447-.2-.324-.508-.486-.926-.486zm9.944.035h-2.145v5.209h-1.787v-5.21h-2.15v-1.34h6.082v1.34zm3.908-1.477c.879 0 1.553.192 2.021.575.469.382.703.964.703 1.746v4.365h-1.248l-.345-.89h-.047a3.318 3.318 0 01-.574.573 1.97 1.97 0 01-.674.329 3.53 3.53 0 01-.926.105c-.387 0-.734-.074-1.043-.223a1.657 1.657 0 01-.72-.68c-.177-.308-.264-.699-.264-1.171 0-.695.244-1.207.732-1.535.488-.332 1.22-.516 2.197-.551l1.137-.035v-.287c0-.344-.09-.596-.27-.756-.18-.16-.43-.24-.75-.24a3.27 3.27 0 00-.931.134c-.305.09-.61.203-.914.34l-.592-1.207a5.083 5.083 0 011.166-.433c.434-.106.88-.159 1.342-.159zm.949 3.65l-.691.024c-.579.016-.98.12-1.207.31a.948.948 0 00-.334.756c0 .274.08.47.24.586.16.114.369.17.627.17.383 0 .705-.113.967-.34.265-.226.398-.548.398-.966v-.54zm9.486 3.036h-1.787v-5.21H92.76c-.082.962-.18 1.78-.293 2.456-.114.676-.258 1.227-.434 1.652-.176.422-.394.73-.656.926-.262.195-.584.293-.967.293-.21 0-.4-.016-.568-.047a1.963 1.963 0 01-.451-.14v-1.43c.086.035.177.064.275.088.098.02.197.029.299.029a.48.48 0 00.322-.135c.102-.09.197-.244.287-.463a5.32 5.32 0 00.252-.92c.082-.39.156-.884.223-1.482a53.2 53.2 0 00.187-2.168h4.957v6.55z" fill="#F5F6FF"/></svg>
